icons/mail-star-fill.svg

<svg xmlns="http://www.w3.org/2000/svg" width="24" height="24" fill="none"><g clip-path="url(#a)"><g><path fill="#121212" d="M22 14.044C20.9688 13.5708 19.8246 13.3998 18.7001 13.5506C17.5756 13.7015 16.5169 14.168 15.6468 14.8962C14.7768 15.6244 14.131 16.5844 13.7845 17.6648C13.438 18.7451 13.4049 19.9016 13.689 21H3C2.73478 21 2.48043 20.8946 2.29289 20.7071C2.10536 20.5196 2 20.2652 2 20V4C2 3.73478 2.10536 3.48043 2.29289 3.29289C2.48043 3.10536 2.73478 3 3 3H21C21.2652 3 21.5196 3.10536 21.7071 3.29289C21.8946 3.48043 22 3.73478 22 4V14.044ZM12.06 11.683L5.648 6.238L4.353 7.762L12.073 14.317L19.654 7.757L18.346 6.244L12.061 11.683H12.06ZM19.5 21.75L16.855 23.14L17.36 20.195L15.22 18.109L18.177 17.679L19.5 15L20.823 17.68L23.78 18.11L21.64 20.195L22.145 23.141L19.5 21.75Z"/></g></g><defs><clipPath id="a"><rect width="24" height="24" fill="white"/></clipPath></defs></svg>

<svg width="24" height="24" fill="none" xmlns="http://www.w3.org/2000/svg"><g clip-path="url(#a)"><path d="M22 14.044A6 6 0 0 0 13.689 21H3a1 1 0 0 1-1-1V4a1 1 0 0 1 1-1h18a1 1 0 0 1 1 1v10.044Zm-9.94-2.361L5.648 6.238 4.353 7.762l7.72 6.555 7.581-6.56-1.308-1.513-6.285 5.439h-.001ZM19.5 21.75l-2.645 1.39.505-2.945-2.14-2.086 2.957-.43L19.5 15l1.323 2.68 2.957.43-2.14 2.085.505 2.946L19.5 21.75Z" /></g><defs><clipPath id="a"><path fill="#fff" d="M0 0h24v24H0z"/></clipPath></defs></svg>
